packages/common/src/icons/sandbox.svg

<svg width="1em" height="1em" viewBox="0 0 40 40" xmlns="http://www.w3.org/2000/svg">
<path d="M18.7932 18.1206C19.0246 18.2523 19.3084 18.2515 19.539 18.1185L31.3628 11.3002C31.8655 11.0103 31.8626 10.2836 31.3575 9.99777L19.8651 3.494C19.4858 3.27967 19.0192 3.27967 18.6392 3.494L6.98325 10.0897C6.47652 10.3765 6.47553 11.1061 6.98147 11.3942L18.7932 18.1206Z" fill="currentColor"/>
<path d="M17.5 21.1711C17.5 20.9063 17.3603 20.6611 17.1325 20.526L6.13248 14.0046C5.63253 13.7082 5 14.0686 5 14.6498V27.6749C5 28.107 5.00547 28.5873 5.3875 28.8026L16.3735 35.1794C16.8735 35.4696 17.5 35.1088 17.5 34.5307V21.1711Z" fill="currentColor"/>
<path d="M21.1952 20.6757C20.9706 20.8116 20.8334 21.0549 20.8334 21.3174V34.514C20.8334 35.0958 21.4671 35.4561 21.967 35.1585L32.8753 28.6655C33.2348 28.4529 33.3334 28.0601 33.3334 27.6349V14.6635C33.3334 14.0793 32.695 13.7194 32.1952 14.0217L21.1952 20.6757Z" fill="currentColor"/>
</svg>

<svg width="1em" height="1em" viewBox="0 0 40 40" xmlns="http://www.w3.org/2000/svg"><path d="M18.793 18.12a.75.75 0 00.746-.002L31.363 11.3a.75.75 0 00-.005-1.302L19.864 3.494a1.249 1.249 0 00-1.226 0L6.983 10.09a.75.75 0 00-.002 1.304l11.812 6.727zM17.5 21.171a.75.75 0 00-.367-.645l-11-6.521A.75.75 0 005 14.65v13.025c0 .432.005.912.388 1.128l10.986 6.376a.75.75 0 001.126-.648V21.17zM21.195 20.676a.75.75 0 00-.362.641v13.197a.75.75 0 001.134.644l10.908-6.492c.36-.213.458-.606.458-1.031V14.663a.75.75 0 00-1.138-.641l-11 6.654z" fill="currentColor"/></svg>
